X:792
T:Petronella
R:Country Dance
M:C|
L:1/8
K:D
F2AF E2AF|D2D2D2 FA|d2cd e2d2|cd Bc A2dA|
F2AF E2AF|D2D2D2 FA|d2cd e2c2|d4 d2dA:|
|:F2fd A2af|ga gf ed cB|A2ec A2ge|fa fd Ad AF|
D2fd A2af|ga gf ed cB|A2ec Ag ec|d2f2d2 AG:|

